X: 9414
T: Daniel Of The Sun
R: jig
M: 6/8
K: Gmajor
G2 G AGA|Bee dBA|BcB B2A|BcB B2A|
GFG AGA|Bee dBG|ABA A2D|ABA A2d:|
g2g faf|efe dBA|BcB B2A|BcB B2G|
~g2 g faf|efe dBG|ABA A2D|ABA A2 d|
gbg faf|efe dBA|BcB B2A|BcB B2G|
gfg agf|gfg d2B|ABA A2D|1 ABA A2D|2 G6||

